assets/img/braze_icons/sun-setting-02.svg

<svg fill="none" height="24" viewBox="0 0 24 24" width="24" xmlns="http://www.w3.org/2000/svg"><g fill="#801ed7"><path d="m12 2c.5523 0 1 .44772 1 1v2c0 .55228-.4477 1-1 1s-1-.44772-1-1v-2c0-.55228.4477-1 1-1z"/><path d="m3 20c0-.5523.44772-1 1-1h16c.5523 0 1 .4477 1 1s-.4477 1-1 1h-16c-.55228 0-1-.4477-1-1z"/><path d="m2 12c-.55228 0-1 .4477-1 1s.44772 1 1 1h2c.55228 0 1-.4477 1-1s-.44772-1-1-1z"/><path d="m4.1928 5.1928c.39052-.39053 1.02369-.39053 1.41421 0l1.41421 1.41421c.39053.39052.39053 1.02369 0 1.41421-.39052.39053-1.02369.39053-1.41421 0l-1.41421-1.41421c-.39053-.39052-.39053-1.02369 0-1.41421z"/><path d="m19.8069 6.60701c.3905-.39052.3905-1.02369 0-1.41421-.3906-.39053-1.0237-.39053-1.4142 0l-1.4143 1.41421c-.3905.39052-.3905 1.02369 0 1.41421.3906.39053 1.0237.39053 1.4143 0z"/><path d="m19 13c0-.5523.4477-1 1-1h2c.5523 0 1 .4477 1 1s-.4477 1-1 1h-2c-.5523 0-1-.4477-1-1z"/><path d="m2 15.5c-.55228 0-1 .4477-1 1s.44772 1 1 1h20c.5523 0 1-.4477 1-1s-.4477-1-1-1z"/><path d="m12 7c-3.31371 0-6 2.68629-6 6 0 .5523.44772 1 1 1h10c.5523 0 1-.4477 1-1 0-3.31371-2.6863-6-6-6z"/></g></svg>

<svg width="24" height="24" viewBox="0 0 24 24" fill="none" xmlns="http://www.w3.org/2000/svg">
<path d="M12 2C12.5523 2 13 2.44772 13 3V5C13 5.55228 12.5523 6 12 6C11.4477 6 11 5.55228 11 5V3C11 2.44772 11.4477 2 12 2Z" fill="#801ED7"/>
<path d="M3 20C3 19.4477 3.44772 19 4 19H20C20.5523 19 21 19.4477 21 20C21 20.5523 20.5523 21 20 21H4C3.44772 21 3 20.5523 3 20Z" fill="#801ED7"/>
<path d="M2 12C1.44772 12 1 12.4477 1 13C1 13.5523 1.44772 14 2 14H4C4.55228 14 5 13.5523 5 13C5 12.4477 4.55228 12 4 12H2Z" fill="#801ED7"/>
<path d="M4.1928 5.1928C4.58332 4.80227 5.21649 4.80227 5.60701 5.1928L7.02122 6.60701C7.41175 6.99753 7.41175 7.6307 7.02122 8.02122C6.6307 8.41175 5.99753 8.41175 5.60701 8.02122L4.1928 6.60701C3.80227 6.21649 3.80227 5.58332 4.1928 5.1928Z" fill="#801ED7"/>
<path d="M19.8069 6.60701C20.1974 6.21649 20.1974 5.58332 19.8069 5.1928C19.4163 4.80227 18.7832 4.80227 18.3927 5.1928L16.9784 6.60701C16.5879 6.99753 16.5879 7.6307 16.9784 8.02122C17.369 8.41175 18.0021 8.41175 18.3927 8.02122L19.8069 6.60701Z" fill="#801ED7"/>
<path d="M19 13C19 12.4477 19.4477 12 20 12H22C22.5523 12 23 12.4477 23 13C23 13.5523 22.5523 14 22 14H20C19.4477 14 19 13.5523 19 13Z" fill="#801ED7"/>
<path d="M2 15.5C1.44772 15.5 1 15.9477 1 16.5C1 17.0523 1.44772 17.5 2 17.5H22C22.5523 17.5 23 17.0523 23 16.5C23 15.9477 22.5523 15.5 22 15.5H2Z" fill="#801ED7"/>
<path d="M12 7C8.68629 7 6 9.68629 6 13C6 13.5523 6.44772 14 7 14H17C17.5523 14 18 13.5523 18 13C18 9.68629 15.3137 7 12 7Z" fill="#801ED7"/>
</svg>
